app/assets/images/icons/campfire.svg

<svg width="97" height="121" viewBox="0 0 97 121" fill="none" xmlns="http://www.w3.org/2000/svg">
<path fill-rule="evenodd" clip-rule="evenodd" d="M88.7619 78.9755C90.2137 78.4562 91.8092 78.5116 93.2215 79.1304C94.6338 79.7492 95.756 80.8846 96.3584 82.304C96.9607 83.7234 96.9976 85.3193 96.4614 86.765C95.9252 88.2107 94.8566 89.3967 93.4744 90.0801L92.8219 90.358L66.4621 99.7709L92.8219 109.184C94.2807 109.696 95.4875 110.749 96.1937 112.124C96.9 113.5 97.052 115.094 96.6184 116.578C96.1848 118.062 95.1987 119.324 93.8631 120.103C92.5274 120.882 90.9439 121.119 89.4386 120.766L88.7619 120.566L48.5002 106.187L8.23856 120.566C6.78673 121.086 5.19128 121.03 3.77899 120.411C2.3667 119.793 1.24445 118.657 0.642093 117.238C0.03974 115.818 0.00287299 114.222 0.539044 112.777C1.07521 111.331 2.14385 110.145 3.52606 109.462L4.17856 109.184L30.5384 99.7709L4.17856 90.358C2.71974 89.8454 1.51297 88.793 0.806713 87.4175C0.100453 86.042 -0.0515371 84.448 0.382035 82.9638C0.815607 81.4796 1.80174 80.2181 3.13739 79.4391C4.47305 78.6601 6.05656 78.4228 7.56189 78.7761L8.23856 78.9755L48.5002 93.3546L88.7619 78.9755ZM43.8481 5.47257L48.1196 2.6934L49.4488 1.88986C52.4092 0.216319 55.6717 -0.889307 58.4931 1.56361C60.1848 3.02569 60.7467 5.0859 60.4446 7.18236L60.2029 8.4209L60.1123 9.26674C60.0821 9.77424 60.0821 10.4086 60.1606 11.1215C60.6802 15.7797 63.8521 19.1086 67.1388 22.1234L69.8998 24.6367L71.9661 26.5882C76.8719 31.3732 82.2852 37.8257 84.5629 46.9486C87.3059 57.9082 84.5992 67.738 77.4217 74.6617C70.4979 81.3559 60.1063 84.6667 48.5002 84.6667C29.3542 84.6667 12.2502 72.2692 12.2502 51.4376C12.2502 35.1492 23.0165 22.2865 32.4415 14.0397C36.0567 10.9379 39.8712 8.07609 43.8602 5.47257M49.8415 43.9701L48.5002 42.3751L47.165 43.9701L45.7331 45.7886L44.6033 47.3111L43.395 49.0269C40.0963 53.8542 36.4169 60.4819 36.4169 66.0403C36.4169 72.9882 41.8302 78.6251 48.5002 78.6251C55.1763 78.6251 60.5836 72.9882 60.5836 66.0403C60.5836 60.4819 56.9042 53.8542 53.6054 49.0269L52.3971 47.3111L51.2673 45.7886L49.8415 43.9701Z" fill="#4A2D24"/>
</svg>

<svg xmlns="http://www.w3.org/2000/svg" width="97" height="121" fill="none"><path fill="#4A2D24" fill-rule="evenodd" d="M88.762 78.976a6.042 6.042 0 0 1 4.712 11.104l-.652.278-26.36 9.413 26.36 9.413a6.04 6.04 0 0 1-3.383 11.582l-.677-.2L48.5 106.187 8.24 120.566a6.04 6.04 0 0 1-7.7-7.789 6.04 6.04 0 0 1 2.987-3.315l.653-.278 26.36-9.413-26.36-9.413a6.042 6.042 0 0 1 3.383-11.582l.677.2L48.5 93.355zM43.848 5.472l4.272-2.78 1.329-.803c2.96-1.674 6.223-2.78 9.044-.326 1.692 1.462 2.254 3.522 1.952 5.618l-.242 1.239-.09.846c-.03.507-.03 1.142.048 1.854.52 4.659 3.691 7.988 6.978 11.002l2.76 2.514 2.067 1.951c4.906 4.785 10.32 11.238 12.597 20.36 2.743 10.96.036 20.79-7.141 27.714-6.924 6.694-17.316 10.005-28.922 10.005-19.146 0-36.25-12.398-36.25-33.23 0-16.288 10.767-29.15 20.191-37.397a109 109 0 0 1 11.42-8.567m5.98 38.497-1.34-1.595-1.336 1.595-1.432 1.819-1.13 1.522-1.208 1.716c-3.299 4.827-6.978 11.455-6.978 17.013 0 6.948 5.413 12.585 12.083 12.585 6.676 0 12.084-5.637 12.084-12.585 0-5.558-3.68-12.186-6.979-17.013l-1.208-1.716-1.13-1.522z" clip-rule="evenodd"/></svg>
